X: 28
T:Silver Spear, The
M:C|
R:reel
K:D
FA~A2 BAFA|dfed BdAG|FA~A2 BAFA|dfed BdA2|
FA~A2 BAFA|dfed (3Bcd ef|~g3e ~f3e|dfed BdA2:|
|:fa~a2 bfaf|gfed Bcde|fa~a2 bfaf|gfed B2A2|
fa~a2 bfaf|gfed (3Bcd ef|~g3e ~f3e|dfed BdA2:|

